material/.icons/material/barrel.svg

<svg xmlns="http://www.w3.org/2000/svg" viewBox="0 0 24 24"><path d="M18 19h1v2H5v-2h1v-6H5v-2h1V5H5V3h14v2h-1v6h1v2h-1v6m-9-6a3 3 0 003 3 3 3 0 003-3c0-2-3-5.37-3-5.37S9 11 9 13z"/></svg>

<?xml version="1.0" encoding="UTF-8"?><!DOCTYPE svg PUBLIC "-//W3C//DTD SVG 1.1//EN" "http://www.w3.org/Graphics/SVG/1.1/DTD/svg11.dtd"><svg xmlns="http://www.w3.org/2000/svg" xmlns:xlink="http://www.w3.org/1999/xlink" version="1.1" id="mdi-barrel" width="24" height="24" viewBox="0 0 24 24"><path d="M18,19H19V21H5V19H6V13H5V11H6V5H5V3H19V5H18V11H19V13H18V19M9,13A3,3 0 0,0 12,16A3,3 0 0,0 15,13C15,11 12,7.63 12,7.63C12,7.63 9,11 9,13Z" /></svg>
